!!!!SEGMENT: pl-wtm--1587-fp-5523_stojowski-zygmunt--doumka-op-17-no-1.krn
!!!cenid: 19xx:158
!!!COM: Stojowski, Zygmunt
!!!COM-rismID: pe41019736
!!!CDT: 1870-1946
!!!CNT: Polish
!!!OTL: Doumka Op. 17 No. 1
!!!PDT:
!!!AGN: Secular; Arabesque
!!!YEC: Copyright 2022 Narodowy Instytut Fryderyka Chopina (https://polishscores.org)
!!!YEM: License CC-BY-4.0 (https://creativecommons.org/licenses/by/4.0)
!!!SMS-siglum: PL-Wtm
!!!SMS-shelfmark: 1587 fp 5523
!!!SMS-variant:
!!!SMS-altvar:
!!!SMS-shelfwork: W
!!!NIFC-rismSourceID: 1001192803
!!!NIFC-rismChildID: 1001192803
!!!NIFC-islandoraID: pl-wtm:84931
!!!URL-pdf-islandora: https://repozytorium.nifc.pl/islandora/object/pl-wtm%3A84931/datastream/PDF/view
!!!URL-scan: https://polish.musicsources.pl/pl/lokalizacje/galeria/druki-muzyczne/18815/2 @EN{Scan on Polish Music Sources Website} @PL{Skany w portalu Dziedzictwo Muzyki Polskiej w otwartym dostępie}
!!!IIIF:
!!!ONB-nifc:
!!!OMD: Andante con moto.
!!!AIN: 1 piano
!!!key: d
**kern	**fing	**kern	**fing	**dynam
*part1	*part1	*part1	*part1	*part1
*staff2	*staff2	*staff1	*staff1	*
*ICklav	*	*ICklav	*	*
*Ipiano	*	*Ipiano	*	*
*I"[Piano]	*	*I"[Piano]	*	*
*clefF4	*	*clefG2	*	*
*k[b-]	*	*k[b-]	*	*
*d:	*	*d:	*	*
*M3/4	*	*M3/4	*	*
=1	=1	=1	=1	=1
*^	*	*	*	*
*	*	*^	*	*	*
*	*	*	*	*	*below	*
!	!	!	!	!LO:TX:b:i:t=con duolo	!	!
(8A/L	(4BB-\	1	4	(2d/	3	f
8G/J	.	1	.	.	.	.
2E/)	2AA\)	2	5	.	.	.
.	.	.	.	4c#X/)	.	.
*	*	*v	*v	*	*	*
=2	=2	=2	=2	=2	=2
(8A/L	(4BB-\	.	(2d/	3	>
8G/J	.	.	.	.	.
2E/)	2AA\)	.	.	.	.
.	.	.	4c#X/)	.	]
=3	=3	=3	=3	=3	=3
!	!	!	!LO:TX:a:i:t=poco agitato.	!	!
(8A/L	(4BB-\	.	(>4.d/	.	<
8G/J	.	.	.	.	.
4E/)	4AA\	.	.	.	.
.	.	.	8c#X/	.	.
(8A/L	4BB-\	.	[4d/	.	[[
8G/J	.	.	.	.	.
=4	=4	=4	=4	=4	=4
4E/)	4AA\	.	8d/L]	.	>
.	.	.	8c#X/J	.	.
(8A/L	4BB-\	.	4.d/	.	.
8G/J	.	.	.	.	.
4E/)	4AA\)	.	.	.	.
.	.	.	8c#/)	.	]]
*v	*v	*	*	*	*
=5	=5	=5	=5	=5
2.r	.	[2.A/	.	.
=6	=6	=6	=6	=6
!	!	!LO:TX:b:i:t=poco rit.	!	!
2.r	.	(>8A/L]	.	.
.	.	8B-/	.	.
.	.	8c#X/	.	.
.	.	8d/	.	.
.	.	8f/	.	.
.	.	8g#X/J)	.	.
!!LO:LB:g=original
=7	=7	=7	=7	=7
*	*	*^	*	*
*ped	*	*	*	*above	*
!	!	!LO:TX:b:i:t=dolce espress.	!	!	!
!	!	!LO:TX:a:i:t=a tempo	!	!	!
4DD/ 4AA	.	(8a/L	2.a\	1	.
.	.	8b-/J	.	.	.
2G\ 2c#X 2e	.	4cc#X/	.	.	.
.	.	8b-/L	.	.	.
*Xped	*	*	*	*	*
.	.	[<8a/J)	.	.	.
=8	=8	=8	=8	=8	=8
*ped	*	*	*	*	*
4DD/ 4AA	.	(8dd/L	2.a\] 2.dd	2	.
.	.	8ee/	.	.	.
2F\ 2A 2d 2f	.	8ff/	.	.	.
.	.	8ee/	.	.	.
.	.	8gg/	.	.	.
*Xped	*	*	*	*	*
.	.	8ff/J)	.	.	.
=9	=9	=9	=9	=9	=9
*^	*	*	*	*	*
*ped	*	*	*	*	*	*
2D/ 2B-	(4.GG\	.	(8ff/L	2g\	5	.
.	.	.	8ee/J	.	4	.
.	.	.	4dd/	.	3	.
*Xped	*	*below	*	*	*	*
.	8AA\	4	.	.	.	.
*ped	*	*	*	*	*	*
4D/ 4B-	4BB-\)	3	4g\) 4dd 4gg	4ryy	2	.
=10	=10	=10	=10	=10	=10	=10
*ped	*	*	*	*	*	*
2D/ 2B-	(4.GG\	.	(8ff/L	2g\	.	.
.	.	.	8ee/J	.	.	.
.	.	.	4dd/)	.	.	.
*Xped	*	*	*	*	*	*
.	8AA\	.	.	.	.	.
*ped	*	*	*	*	*	*
4D/ 4B-	4BB-\)	.	4e~</ 4g#X 4ee	4ryy	.	.
*v	*v	*	*	*	*	*
=11	=11	=11	=11	=11	=11
*ped	*	*	*	*	*
4DD/ 4AA	.	(8a/L	[2.a\	.	.
.	.	8b-/J	.	.	.
2G\ 2c#X 2e	.	4cc#X/	.	.	.
.	.	8b-/L	.	.	.
*Xped	*	*	*	*	*
.	.	8a/J)	.	.	.
=12	=12	=12	=12	=12	=12
*ped	*	*	*	*	*
4DD/ 4AA	.	(8dd/L	2.a\] 2.dd	.	.
.	.	8ee/	.	.	.
2F\ 2A 2d 2f	.	8ff/	.	.	.
.	.	8ee/	.	.	.
.	.	8gg/	.	.	.
*Xped	*	*	*	*	*
.	.	8ff/J)	.	.	.
!!LO:LB:g=original
=13	=13	=13	=13	=13	=13
*	*	*	*	*^	*
4GG:\ 4D: 4B-:	.	(8dd/L	4d\ 4g	.	.	.
.	.	8cc#X/J	.	.	.	.
4AA/ 4E	1 4	4a/)	(8d\L	3	1	.
.	.	.	8c#X\J)	.	1	.
4GG:\ 4D: 4B-:	.	(8dd/L	4d\ 4g	.	.	.
.	.	8cc#/J	.	.	.	.
*	*	*	*	*v	*v	*
=14	=14	=14	=14	=14	=14
4AA/ 4E	.	4a/)	(8d\L	.	.
.	.	.	8c#X\J)	.	.
4GG:\ 4D: 4B-:	.	(8dd/L	4d\ 4g	.	.
.	.	8cc#X/J	.	.	.
4AA/ 4E	.	4a/)	(8d\L	.	.
.	.	.	8c#\J)	.	.
*	*	*v	*v	*	*
=15	=15	=15	=15	=15
([2.A^\	.	2.r	.	.
=16	=16	=16	=16	=16
8A\L]	.	2.r	.	.
8G#X\J	.	.	.	.
2E\)	.	.	.	.
=17	=17	=17	=17	=17
!	!	!	!	!LO:HP:t=poco cresc. ed accel.:ext=s
(8A\L	.	2.r	.	<
8G#X\J	.	.	.	.
[2E\	4-1	.	.	.
=18	=18	=18	=18	=18
8E\L]	.	2.r	.	.
8D\J	.	.	.	.
4.BB-/	.	.	.	.
8AA/)	.	.	.	.
=19	=19	=19	=19	=19
(8E\L	.	2.r	.	.
8D\J	.	.	.	.
4.BB-/	.	.	.	.
8AA/)	.	.	.	.
!!LO:LB:g=original
=20	=20	=20	=20	=20
*	*above	*	*	*
(8C/L	1	2.r	.	.
8BB-/	.	.	.	.
8GG#X/	.	.	.	.
8AA/	.	.	.	.
8C/	.	.	.	.
8BB-/J	.	.	.	.
=21	=21	=21	=21	=21
!	!	!LO:TX:b:i:t=allargando	!	!
8GG#X/L	.	2.r	.	.
8AA/	.	.	.	.
8C/)	.	.	.	.
8BB-~/	.	.	.	.
8AA~/	.	.	.	.
8GGn~/J	.	.	.	.
=22	=22	=22	=22	=22
*	*	*^	*	*
!	!	!LO:TX:a:i:t=a tempo	!	!	!
(4FF/ 4C 4A	.	(8cc/L	4f\	3	f
!	!	!LO:TX:b:i:t=poco rubato	!	!	!
.	.	8dd-X/J	.	.	.
*	*below	*	*	*	*
8G\L	3	4e/) 4dd- 4ee	4ryy	3 5	.
8A\J	.	.	.	.	.
4C\) 4B-	.	(8dd-/L	4e\	.	.
.	.	8cc/J)	.	.	.
=23	=23	=23	=23	=23	=23
*^	*	*	*	*	*
(>8FF/L 8C 8A	4ryy	.	2cc/	8f~>\L 8ff	.	.
*	*	*above	*	*	*	*
8B-/J	.	3	.	8g~>\ 8gg	.	.
4c/	2F\	2	.	8a~>\ 8aa	.	.
.	.	.	.	8g~>\ 8gg	.	.
4f/)	.	.	4cc/	8b-\ 8bb-	.	.
.	.	.	.	8a\J 8aa	.	.
=24	=24	=24	=24	=24	=24	=24
2.F/	(>4.BB-\ 4.d	.	2dd/	(>8a\L 8aa	.	.
.	.	.	.	8g\J 8gg	.	.
.	.	.	.	4f\) 4ff	.	.
.	8C\ 8c	.	.	.	.	.
*	*	*below	*	*	*	*
.	4D\) 4B-	4	4b-~\ 4ff 4bb-	4ryy	.	.
=25	=25	=25	=25	=25	=25	=25
*	*^	*	*	*	*	*
2B-/	(4E\ 4c#X	4ryy	.	(8a\L 8aa	4cc#X/	.	>
.	.	.	.	8g\J 8gg	.	.	.
.	4d/)	(<8F\L	4	4f\) 4dd 4ff	2ryy	.	.
.	.	8E\J	.	.	.	.	.
4D\) 4F 4Bn	4ryy	4ryy	4	4g~\ 4bn 4gg	.	.	]]
*	*v	*v	*	*	*	*	*
!!LO:LB:g=original
=26	=26	=26	=26	=26	=26	=26
4B-X/	2.C\	.	(8cc/L	2.e\	.	p
.	.	.	8dd-X/J	.	.	.
*	*	*above	*	*	*	*
8F#X/L	.	3	4b-/) 4ee	.	.	.
(8G/	.	.	.	.	.	.
8A/	.	1	(8dd-/L	.	.	.
8B-/J)	.	.	8cc/J)	.	.	.
=27	=27	=27	=27	=27	=27	=27
!	!	!	!	!	!	!LO:HP:a:t=crescendo e stringendo:ext=s
(8A/L	4FF\ 4C	.	4cc/	8f~>\L 8ff	.	<
*	*	*below	*	*	*	*
8B-/	.	3	.	8g~>\ 8gg	.	.
8c/	4F\	2 5	4cc/	8a~>\ 8aa	.	.
8d/	.	1	.	8g\ 8gg	.	.
8c/ 8e	4ryy	2 4	4cc/	(>8b-\ 8bb-	.	.
8f/J)	.	.	.	8a\J) 8aa	.	.
*v	*v	*	*	*	*	*
=28	=28	=28	=28	=28	=28
*	*	*	*	*^	*
4GG:\ 4D-X: 4B-:	.	(8ff/L	4f\ 4b-	.	.	.
.	.	8ee/J	.	.	.	.
4C\ 4G	1 3	4cc/)	(8f\L	5	2	.
.	.	.	8e\J)	.	.	.
4GG:\ 4D-: 4B-:	.	(8ff/L	4f\ 4b-	.	.	.
.	.	8ee/J	.	.	.	.
*	*	*	*	*v	*v	*
=29	=29	=29	=29	=29	=29
4C\ 4G	.	4cc/)	(8f\L	.	.
.	.	.	8e\J)	.	.
4GG:\ 4D-X: 4B-:	.	(8ff/L	4f\ 4b-	.	.
.	.	8ee/J	.	.	.
4C\ 4G	.	4cc/)	(8f\L	.	.
.	.	.	8e\J)	.	.
=30	=30	=30	=30	=30	=30
4BB-:\ 4F: 4d-X:	.	(4dd-X/	8a\L 8aa	.	.
.	.	.	8g\J 8gg	.	.
*	*	*	*	*below	*
4C\ 4B-	1 4	4e/) 4ee	(8a\L	3	.
.	.	.	8g\J)	2	.
4BB-:\ 4F: 4d-:	.	(4dd-/	8a\L 8aa	.	.
.	.	.	8g\J 8gg	.	.
!!LO:PB:g=original
=31	=31	=31	=31	=31	=31
4C\ 4B-	.	4e/) 4ee	(8a\L	.	.
.	.	.	8g\J)	.	.
4BB-:\ 4F: 4d-X:	.	(4dd-X/	8a\L 8aa	.	.
.	.	.	8g\J 8gg	.	.
4C\ 4B-	.	4e/) 4ee	(8a\L	.	.
.	.	.	8g\J)	.	.
*	*	*v	*v	*	*
=32	=32	=32	=32	=32
*^	*	*	*	*
*	*	*^	*	*	*
!	!	!	!	!LO:TX:a:i:t=a tempo.	!	!
(8B-/L	4C-X\	1	5	(>2e-X/ 2ee-X	.	f
8A-X/J	.	2	.	.	.	.
2BB-/) 2F	2ryy	1	4	.	.	.
.	.	.	.	4d/) 4dd	.	.
*	*	*v	*v	*	*	*
=33	=33	=33	=33	=33	=33
(8B-/L	4C-X\	.	(>2e-X/ 2ee-X	.	>
8A-X/J	.	.	.	.	.
2BB-/) 2F	2ryy	.	.	.	.
.	.	.	4d/) 4dd	.	.
=34	=34	=34	=34	=34	=34
(8B-/L	4C-X\	.	(>4.e-X/ 4.ee-X	.	.
8A-X/J	.	.	.	.	.
4F/)	4BB-\	.	.	.	.
.	.	.	8d/ 8dd	.	.
(8B-/L	4C-X\	.	[4e-/ [4ee-	.	]]
8A-/J	.	.	.	.	.
=35	=35	=35	=35	=35	=35
4F/)	4BB-\	.	8e-/L] 8ee-]	.	.
.	.	.	8d/J 8dd	.	.
(8B-/L	4C-X\	.	4.e-X/ 4.ee-X	.	.
8A-X/J	.	.	.	.	.
4F/)	4BB-\	.	.	.	.
.	.	.	8d/) 8dd	.	.
=36	=36	=36	=36	=36	=36
*	*	*	*^	*	*
*ped	*	*	*	*	*	*
!LO:N:vis=2.	!	!	!	!	!	!
N(>8EE/L	2.EE\	.	4.r	4.ryy	.	mp
[<8BBn/J	.	.	.	.	.	.
2BB/] 2G#X	.	.	.	.	.	.
!	!	!	!LO:TX:b:i:t=poco a	!	!	!
!	!	!	!LO:N:vis=8.	!	!	!
.	.	.	8d/L	4.d\	.	.
*	*	*	*	*	*above	*
.	.	.	N[<8g#X/	.	2	.
.	.	.	8dd/J	.	4	.
*v	*v	*	*	*	*	*
!!LO:LB:g=original
=37	=37	=37	=37	=37	=37
*Xped	*	*	*	*	*
!	!	!LO:TX:b:i:t=poco accelerando e	!	!	!
2.r	.	4.ff/	(8g#\LN]	5	.
*	*	*	*	*below	*
.	.	.	8a\J	1	.
.	.	.	4.a#X\	2	.
.	.	8ee/	.	.	.
.	.	[4ff/	.	.	.
.	.	.	8bn\	1	.
=38	=38	=38	=38	=38	=38
2.r	.	8ff/L]	4.cc\	.	.
.	.	8ee/J	.	.	.
!	!	!	!	!	!LO:HP:t=e crescendo_:ext=s:ext=ud
.	.	4.ff/	.	.	<
.	.	.	8cc#X\	2	.
.	.	.	[4dd\)	1	.
*	*	*	*	*above	*
.	.	8ee/N)	.	3	.
*	*	*v	*v	*	*
=39	=39	=39	=39	=39
*ped	*	*	*	*
!LO:TX:b:i:t=con.:rj	!	!	!	!
2.r	.	(16dd\LL] 16ff	4	.
.	.	16dd#X\	2	.
.	.	16ee\	1	.
.	.	16ff\JJ	.	.
.	.	16ff#X\LL	.	.
.	.	16gg\	.	.
.	.	16gg#X\	.	.
.	.	16aa\JJ	.	.
.	.	16bb-\LL	.	.
.	.	16bbn\	.	.
.	.	16ccc\	.	.
.	.	16ccc#X\JJ)	.	.
=40	=40	=40	=40	=40
*	*	*8va	*	*
*	*	*^	*	*
!	!	!	!LO:N:vis=16.	!	!
2.r	.	(8.fff/L	16fff\LL	.	.
.	.	.	16aa\	.	.
.	.	.	16bb-\	.	.
.	.	16eee/Jk	16eee\JJ	.	.
!	!	!	!LO:N:vis=16.	!	!
.	.	8.fff/L	16fff\LL	.	.
.	.	.	16bbn\	.	.
.	.	.	16ccc\	.	.
.	.	16eee/Jk	16eee\JJ	.	.
!	!	!	!LO:N:vis=16.	!	!
.	.	8.fff/L	16fff\LL	.	.
.	.	.	16ccc#X\	.	.
.	.	.	16ddd\	.	.
.	.	16eee/Jk	16eee\JJ	3	[[
*	*	*v	*v	*	*
=41	=41	=41	=41	=41
2.r	.	16fff\LL	4	.
.	.	16ddd#X\	2	.
!	!	!LO:TX:b:i:t=veloce	!	!
.	.	16eee\	1	.
.	.	16fff\JJ	.	.
.	.	16fff#X\LL	.	.
.	.	16ggg\	.	.
.	.	16ggg#X\	.	.
.	.	16aaa\JJ	.	.
.	.	16bbb-\LL	.	.
.	.	16bbbn\	.	.
.	.	16cccc\	.	.
.	.	16cccc#X\JJ	.	.
!!LO:LB:g=original
=42	=42	=42	=42	=42
2.r	.	16ffff\LL	.	.
.	.	16aaa\	.	.
.	.	16bbb-X\	.	.
.	.	16eeee\JJ	.	.
.	.	16ffff\LL	.	.
.	.	16bbbn\	.	.
.	.	16cccc\	.	.
.	.	16eeee\JJ	.	.
.	.	16ffff\LL	.	.
.	.	16cccc#X\	.	.
.	.	16dddd\	1	.
.	.	16eeee\JJ	3	<
=43	=43	=43	=43	=43
2.r	.	16ffff\LL	4	.
.	.	16dddd#X\	2	.
.	.	16eeee\	1	.
.	.	16ffff\JJ	.	.
.	.	16ffff#X\LL	.	.
.	.	16eeee\	1	.
.	.	16eeee#X\	.	.
.	.	16ffff#\JJ	.	.
.	.	16gggg\LL	.	.
.	.	16eeee#\	1	.
.	.	16ffff#\	.	.
.	.	16gggg\JJ	.	.
=44	=44	=44	=44	=44
2.r	.	16gggg#X\LL	.	.
.	.	16ffffn\	1	.
.	.	16ffff#X\	.	.
.	.	16ggggn\JJ	.	.
.	.	16gggg#X\LL	.	.
.	.	16ffffn\	.	.
.	.	16ffff#X\	.	.
.	.	16ggggn\JJ	.	.
.	.	20gggg#X\LL	.	[
.	.	20ffffn\	.	.
.	.	20ffff#X\	.	.
.	.	20ggggn\	.	.
.	.	20gggg#X\JJ	.	.
!!LO:LB:g=original
=45	=45	=45	=45	=45
2.r	.	24aaaa\LL	.	.
.	.	24aaa\	.	.
.	.	24bbb-\	.	.
.	.	24aaa\	.	.
.	.	24bbb-\	.	.
.	.	24aaa\JJ	.	.
.	.	24aaaa\LL	.	.
.	.	24aaa\	.	.
.	.	24bbb-\	.	.
.	.	24aaa\	.	.
.	.	24bbb-\	.	.
.	.	24aaa\JJ	.	.
.	.	24aaaa\LL	.	.
.	.	24aaa\	.	.
.	.	24bbb-\	.	.
.	.	24aaa\	.	.
.	.	24bbb-\	.	.
.	.	24aaa\JJ	.	.
=46	=46	=46	=46	=46
*	*	*Xtuplet	*	*
2.r	.	24aaaa\LL	.	.
.	.	24aaa\	.	.
.	.	24bbb-\	.	.
.	.	24aaa\	.	.
.	.	24bbb-\	.	.
.	.	24aaa\JJ	.	.
.	.	24aaaa\LL	.	.
.	.	24aaa\	.	.
.	.	24bbb-\	.	.
.	.	24aaa\	.	.
.	.	24bbb-\	.	.
.	.	24aaa\JJ	.	.
.	.	24aaaa\LL	.	.
.	.	24aaa\	.	.
.	.	24bbb-\	.	.
.	.	24aaa\	.	.
.	.	24bbb-\	.	.
.	.	24aaa\JJ	.	.
!!LO:LB:g=original
=47	=47	=47	=47	=47
*ped	*	*	*	*
!LO:TX:a:i:t=marc.	!	!	!	!
4AAA^/	.	24aaaa\LL	.	ff
.	.	24aaa\	.	.
.	.	24bbb-\	.	.
.	.	24aaa\	.	.
.	.	24bbb-\	.	.
.	.	24aaa\JJ	.	.
8AA'\L	5	24aaaa\LL	.	.
.	.	24aaa\	.	.
.	.	24bbb-\	.	.
8E'\	2	24aaa\	.	.
.	.	24bbb-\	.	.
.	.	24aaa\JJ	.	.
8A'\	1	24aaaa\LL	.	.
.	.	24aaa\	.	.
.	.	24bbb-\	.	.
8e'\J	5	24aaa\	.	.
.	.	24bbb-\	.	.
.	.	24aaa\JJ	.	.
*clefG2	*	*	*	*
=48	=48	=48	=48	=48
8a'\L	3	24aaaa\LL	.	.
.	.	24aaa\	.	.
.	.	24bbb-\	.	.
8ee'\	1	24aaa\	.	.
.	.	24bbb-\	.	.
.	.	24aaa\JJ	.	.
8aa'\	5	24aaaa\LL	.	.
.	.	24aaa\	.	.
.	.	24bbb-\	.	.
8eee'\J	2	24aaa\	.	.
.	.	24bbb-\	.	.
.	.	24aaa\JJ	.	.
4r	.	24aaaa\LL	.	.
.	.	24aaa\	.	.
.	.	24bbb-\	.	.
!	!	!	!	!LO:HP:t=dim.
.	.	24aaa\	.	>
.	.	24bbb-\	.	.
.	.	24aaa\JJ	.	.
!!LO:PB:g=original
=49	=49	=49	=49	=49
*clefF4	*	*	*	*
!	!	!LO:TX:b:i:t=e calando poco a poco	!	!
2.r	.	24aaaa\LL	.	.
.	.	24aaa\	.	.
.	.	24bbb-\	.	.
.	.	24aaa\	.	.
.	.	24bbb-\	.	.
.	.	24aaa\JJ	.	.
.	.	24aaaa\LL	.	.
.	.	24aaa\	.	.
.	.	24bbb-\	.	.
.	.	24aaa\	.	.
.	.	24bbb-\	.	.
.	.	24aaa\JJ	.	.
.	.	24aaaa\LL	.	.
.	.	24aaa\	.	.
.	.	24bbb-\	.	.
.	.	24aaa\	.	.
.	.	24bbb-\	.	.
.	.	24aaa\JJ	.	.
=50	=50	=50	=50	=50
2.r	.	24aaaa\LL	.	.
.	.	24aaa\	.	.
.	.	24bbb-\	.	.
.	.	24aaa\	.	.
.	.	24bbb-\	.	.
.	.	24aaa\JJ	.	.
.	.	24aaaa\LL	.	.
.	.	24aaa\	.	.
.	.	24bbb-\	.	.
.	.	24aaa\	.	.
.	.	24bbb-\	.	.
.	.	24aaa\JJ	.	.
.	.	24aaaa\LL	.	.
.	.	24aaa\	.	.
.	.	24bbb-\	.	.
.	.	24aaa\	.	.
.	.	24bbb-\	.	.
*Xped	*	*	*	*
.	.	24aaa\JJ)	.	.
!!LO:LB:g=original
=51	=51	=51	=51	=51
*^	*	*	*	*
*	*	*above	*	*	*
!LO:TX:b:i:t=cantato	!	!	!LO:TX:b:i:t=  a tempo ma poco animato	!	!
(8A/L	[4D\ 4F	5 4 1	(24aaaa\LL	.	p
.	.	.	24aaa\	1	.
.	.	.	24bbb-\	2	.
8B-/J	.	2	24gggg\	.	.
.	.	.	24ggg\	.	.
.	.	.	24aaa\JJ	.	.
!	!LO:N:n=1:vis=2.	!	!	!	!
4c#X/	2D\] 2G	1	24ffff\LL	.	.
.	.	.	24fff\	.	.
.	.	.	24ggg\	.	.
.	.	.	24eeee\	.	.
.	.	.	24eee\	.	.
.	.	.	24fff\JJ	.	.
8B-/L	.	2	24dddd\LL	.	.
.	.	.	24ddd\	.	.
.	.	.	24eee\	.	.
8A/J)	.	1	24cccc#X\	.	.
.	.	.	24ccc#X\	.	.
.	.	.	24eee\JJ)	.	.
=52	=52	=52	=52	=52	=52
(8D\L 8F 8A 8d	4ryy	5 4 2 1	(24ffff\LL	.	.
.	.	.	24fff\	.	.
.	.	.	24ggg\	.	.
8e\J	.	3	24eeee\	.	.
.	.	.	24eee\	.	.
.	.	.	24fff\JJ	.	.
8f/L	2d\	4 2	24dddd\LL	.	.
.	.	.	24ddd\	.	.
.	.	.	24eee\	.	.
8e/	.	.	24ccccn\	.	.
.	.	.	24cccn\	.	.
.	.	.	24ddd\JJ	.	.
8g/	.	.	24bbb-\LL	.	.
.	.	.	24bb-\	.	.
.	.	.	24ccc\	.	.
8f/J)	.	.	24aaa\	.	.
.	.	.	24aa\	.	.
.	.	.	24bb-\JJ	.	.
!!LO:LB:g=original
=53	=53	=53	=53	=53	=53
(8f/L	2B-\	5 1	24ggg#X\LL	.	.
.	.	.	24gg#X\	.	.
.	.	.	24aa\	.	.
*	*	*below	*	*	*
8e/J	.	2	24gggn\	.	.
.	.	.	24ggn\	.	.
.	.	.	24aa\JJ	.	.
4d/	.	3	24fff/LL	.	.
.	.	.	24ff/	.	.
.	.	.	24gg/	.	.
.	.	.	24eee/	.	.
.	.	.	24ee/	.	.
.	.	.	24ff/JJ	.	.
*	*	*above	*	*	*
4g/)	4ryy	1	24eee-X/LL	.	.
.	.	.	24ee-X/	.	.
.	.	.	24ff/	.	.
.	.	.	24ddd/	.	.
.	.	.	24dd/	.	.
.	.	.	24ee-/JJ)	.	.
=54	=54	=54	=54	=54	=54
(8f/L	2.B-\	2	(24ccc#X/LL	4	.
.	.	.	24ddd/	5	.
.	.	.	24dd/	1	.
*	*	*below	*	*	*
8e/J	.	1	24ddd/	.	.
.	.	.	24eeen/	.	.
.	.	.	24een/JJ	.	.
4d/	.	3	24eee/LL	.	.
.	.	.	24fff/	.	.
.	.	.	24ff/	.	.
.	.	.	24fff/	3	.
.	.	.	24fff#X/	4	.
.	.	.	24ff#X/JJ	.	.
4e/)	.	2	24fff#\LL	.	.
.	.	.	24ggg\	.	.
.	.	.	24gg\	.	.
.	.	.	24ggg\	3	.
.	.	.	24ggg#X\	4	.
.	.	.	24gg#X\JJ)	.	.
!!LO:LB:g=original
=55	=55	=55	=55	=55	=55
(8A/L	[4D\ 4F	1 4 5	(24aaa\LL	.	.
.	.	.	24aa\	.	.
.	.	.	24bb-\	.	.
8B-/J	.	.	24gggn\	.	.
.	.	.	24ggn\	.	.
.	.	.	24aa\JJ	.	.
4c#X/	2D\] 2G	.	24fff/LL	.	.
.	.	.	24ff/	.	.
.	.	.	24gg/	.	.
.	.	.	24eee/	.	.
.	.	.	24ee/	.	.
.	.	.	24ff/JJ	.	.
*	*	*	*X8va	*	*
8B-/L	.	.	24ddd\LL	.	.
.	.	.	24dd\	.	.
.	.	.	24ee\	.	.
8A/J)	.	.	24ccc#X\	.	.
.	.	.	24cc#X\	.	.
.	.	.	24ee\JJ)	.	.
=56	=56	=56	=56	=56	=56
(8D\L 8F 8A 8d	4ryy	.	(24fff\LL	.	.
.	.	.	24ff\	.	.
.	.	.	24gg\	.	.
8e\J	.	.	24eee\	.	.
.	.	.	24ee\	.	.
.	.	.	24ff\JJ	.	.
8f/L	2d\	.	24ddd\LL	.	.
.	.	.	24dd\	.	.
.	.	.	24ee\	.	.
8e/	.	.	24cccn\	.	.
.	.	.	24ccn\	.	.
.	.	.	24dd\JJ	.	.
8g/	.	.	24bb-\LL	.	.
.	.	.	24b-\	.	.
.	.	.	24cc\	.	.
8f/J)	.	.	24aa\	.	.
.	.	.	24a\	.	.
.	.	.	24b-\JJ)	.	.
!!LO:LB:g=original
=57	=57	=57	=57	=57	=57
(8d/L	4A\	1 5	(24dd#X\LL	4	.
.	.	.	24ee\	5	.
.	.	.	24e\	.	.
*	*	*above	*	*	*
8c#X/J	.	3	24ee\	.	.
.	.	.	24ff\	.	.
.	.	.	24f\JJ	.	.
!	!	!	!	!	!LO:HP:t=cresc. ed affretando_:ext=s:ext=ud
4A\)	2ryy	.	24ff\LL	3	<
.	.	.	24ff#X\	4	.
.	.	.	24f#X\	.	.
.	.	.	24ff#\	.	.
.	.	.	24gg\	.	.
.	.	.	24g\JJ)	.	.
*	*	*below	*	*	*
(8d\L	.	2	(24dd#\LL	.	.
.	.	.	24ee\	.	.
.	.	.	24e\	.	.
8c#\J	.	.	24ee\	.	.
.	.	.	24ffn\	.	.
.	.	.	24fn\JJ	.	.
*v	*v	*	*	*	*
=58	=58	=58	=58	=58
4A\)	.	24ff\LL	3	.
.	.	24ff#X\	4	.
.	.	24f#X\	.	.
.	.	24ff#\	.	.
.	.	24gg\	.	.
.	.	24g\JJ)	.	.
(8d\L	.	(24dd#X\LL	.	.
.	.	24ee\	.	[
.	.	24e\	.	.
8c#X\J	.	24ee\	.	.
.	.	24ffn\	.	.
.	.	24fn\JJ	.	.
4A\)	.	24ff\LL	.	.
.	.	24ff#X\	.	.
.	.	24f#X\	.	.
.	.	24ff#\	.	.
.	.	24gg\	.	.
.	.	24g\JJ)	.	.
!!LO:PB:g=original
=59	=59	=59	=59	=59
*Xtuplet	*above	*	*	*
24g#X>\LL	3	24ryy	.	p
!	!	!LO:TX:b:i:t=accel.	!	!
12ryy	.	24a/LL	.	.
.	.	24aa/JJ	.	.
24b->\JJ	2	24ryy	.	.
12ryy	.	24aa/LL	.	.
.	.	24a/JJ	.	.
24g#>\LL	.	24ryy	.	.
12ryy	.	24a/LL	.	.
.	.	24aa/JJ	.	.
24b->\JJ	.	24ryy	.	.
12ryy	.	24aa/LL	.	.
.	.	24a/JJ	.	.
24g#>\LL	.	24ryy	.	.
12ryy	.	24a/LL	.	.
.	.	24aa/JJ	.	.
24b->\JJ	.	24ryy	.	.
12ryy	.	24aa/LL	.	.
.	.	24a/JJ	.	.
=60	=60	=60	=60	=60
24g#X>\LL	3	24ryy	.	.
12ryy	.	24a/LL	.	.
.	.	24aa/JJ	.	.
24b->\JJ	2	24ryy	.	.
12ryy	.	24bn/LL	.	<
.	.	24bbn/JJ	.	.
24cc>\LL	2	24ryy	.	.
12ryy	.	24cc#X/LL	.	.
.	.	24ccc#X/JJ	.	.
24dd>\JJ	.	24ryy	.	.
12ryy	.	24dd#X/LL	.	.
.	.	24ddd#X/JJ	.	.
*8va	*	*8va	*	*
24ee>\LL	.	24ryy	.	.
12ryy	.	24ff/LL	.	[
.	.	24fff/JJ	.	.
24ff#X>\JJ	.	24ryy	.	.
12ryy	.	24gg/LL	.	.
.	.	24ggg/JJ	.	.
!!LO:LB:g=original
=61	=61	=61	=61	=61
24gg#X>\LL	3	24ryy	.	.
12ryy	.	24aa/LL	.	.
.	.	24aaa/JJ	.	.
24bbb->\JJ	2	24ryy	.	.
12ryy	.	24aaa/LL	.	.
.	.	24aa/JJ	.	.
24gg#>\LL	5	24ryy	.	.
12ryy	.	24aa/LL	.	.
.	.	24aaa/JJ	.	.
24bbb->\JJ	2	24ryy	.	.
12ryy	.	24aaa/LL	.	<
.	.	24aa/JJ	.	.
24gg#>\LL	5	24ryy	.	.
12ryy	.	24aa/LL	.	.
.	.	24aaa/JJ	.	.
24bbb->\JJ	2	24ryy	.	.
12ryy	.	24aaa/LL	.	.
.	.	24aa/JJ	.	.
=62	=62	=62	=62	=62
24gg#X>\LL	.	24ryy	.	.
12ryy	.	24aa/LL	.	.
.	.	24aaa/JJ	.	.
24bbb->\JJ	.	24ryy	.	.
12ryy	.	24aaa/LL	.	[
.	.	24aa/JJ	.	.
24gg#>\LL	.	24ryy	.	.
12ryy	.	24aa/LL	.	.
.	.	24aaa/JJ	.	.
24bbb->\JJ	.	24ryy	.	.
12ryy	.	24aaa/LL	.	.
.	.	24aa/JJ	.	.
24gg#>\LL	.	24ryy	.	.
12ryy	.	24aa/LL	.	.
.	.	24aaa/JJ	.	.
24bbb->\JJ	.	24ryy	.	.
12ryy	.	24aaa/LL	.	.
.	.	24aa/JJ	.	.
!!LO:LB:g=original
=63	=63	=63	=63	=63
16gg#X>\	5	16ryy	.	.
8.ryy	.	16aa/LL	.	.
.	.	16aaa/	.	.
.	.	16aa/JJ	.	.
!	!	!L	!	!LO:HP:t=poco a poco dim. e calando:ext=s
16gg#>\	4	16ryy	.	>
8.ryy	.	16aa/LL	.	.
.	.	16aaa/	.	.
.	.	16aa/JJ	.	.
16gg#>\	3	16ryy	.	.
8.ryy	.	16aa/LL	.	.
.	.	16aaa/	.	.
.	.	16aa/JJ	.	.
=64	=64	=64	=64	=64
16gg#X>\	2	16ryy	.	.
8.ryy	.	16aa/LL	.	.
.	.	16aaa/	.	.
.	.	16aa/JJ	.	.
16gg#>\	3	16ryy	.	.
8.ryy	.	16aa/LL	.	.
.	.	16aaa/	.	.
.	.	16aa/JJ	.	.
N(>12gg#>\	2	12ryy	.	.
*X8va	*	*	*	*
6ryy	.	[12aa/L	3	.
.	.	12aa/J_N) [12aaa	.	.
=65	=65	=65	=65	=65
*ped	*	*	*	*
4DD/ 4AA	.	(8aa\L] 8aaa]	.	pp
!	!	!LO:TX:b:i:t=tranquillo	!	!
.	.	8bb-\J 8bbb-	4	.
2G\ 2c#X 2e	.	4ccc#X\ 4cccc#X	.	.
.	.	8bb-\L 8bbb-	.	.
.	.	8aa\J 8aaa	.	.
*Xped	*	*	*	*
=66	=66	=66	=66	=66
*ped	*	*	*	*
4DD/ 4AA	.	8ddd\L 8dddd	.	.
.	.	8eee\ 8eeee	.	.
2A\ 2d 2a	.	8fff#X\ 8ffff#X	4	.
.	.	8eee\ 8eeee	.	.
.	.	8ggg\ 8gggg	.	.
*Xped	*	*	*	*
.	.	8fff#\J 8ffff#	.	.
!!LO:LB:g=original
=67	=67	=67	=67	=67
*^	*	*	*	*
*	*ped	*	*	*	*
2.D/	(>4.GG\ 4.Bn	.	8fff#X\L 8ffff#X	.	.
.	.	.	8eee\J 8eeee	.	.
.	.	.	4ddd\) 4dddd	.	.
*	*Xped	*below	*X8va	*	*
.	8AA\ 8A	4	.	.	.
*	*ped	*	*	*	*
!	!	!	!	!	!LO:HP:t=poco cresc.:ext=s
.	4BBn\) 4G	3	4g\ 4dd 4gg	.	<
=68	=68	=68	=68	=68	=68
*	*	*	*^	*	*
*	*ped	*	*	*	*	*
2.D/	(>4.GG\ 4.Bn	.	(>8f#X/L 8ff#X	2bn\	5	.
.	.	.	8e/J 8ee	.	5	.
.	.	.	4d/ 4dd	.	4	.
*	*Xped	*	*	*	*	*
.	8AA\ 8A	.	.	.	.	.
*	*ped	*	*	*	*below	*
.	4BBn\) 4G#X	.	4d/) 4e 4dd 4ee	4ryy	1-1	.
*	*Xped	*	*	*	*	*
*	*	*	*v	*v	*	*
=69	=69	=69	=69	=69	=69
*	*	*	*^	*	*
*	*	*	*	*	*above	*
(4G/	2.AA\	.	(8a/L	2.c#X\	3	.
.	.	.	8b-/J	.	.	.
*	*	*above	*	*	*	*
8D#X/L	.	3	4cc#X/	.	.	.
8E/J	.	.	.	.	.	.
4G/)	.	.	8b-/L	.	.	.
.	.	.	8a/J)	.	.	.
=70	=70	=70	=70	=70	=70	=70
(4F#X/	2AA\	2	(2dd/	(8d\L	1	.
.	.	.	.	8e\	1	.
4A/	.	1	.	8f#X\	2	.
.	.	.	.	8e\	.	.
4d\)	4ryy	2	4a/)	8g\	3 4	.
.	.	.	.	8f#\J)	.	.
*	*	*	*v	*v	*	*
=71	=71	=71	=71	=71	=71
*	*	*below	*	*	*
!	!	!	!LO:TX:b:i:t=espress.	!	!
(8A/L	4BB-\	4	(2d/	.	.
8G/J	.	.	.	.	.
2E/)	2AA\	.	.	.	.
.	.	.	4c#X/)	.	.
=72	=72	=72	=72	=72	=72
(8A/L	4BB-\	.	(2d/	.	.
8G/J	.	.	.	.	.
2E/)	2AA\	.	.	.	.
.	.	.	4c#X/)	.	.
!!LO:LB:g=original
=73	=73	=73	=73	=73	=73
(8A/L	4BB-\	.	(4.d/	.	.
8G/J	.	.	.	.	.
4E/)	4AA\	.	.	.	.
.	.	.	8c#X/	.	.
(8A/L	4BB-\	.	[4d/	.	.
8G/J	.	.	.	.	.
=74	=74	=74	=74	=74	=74
4E/)	4AA\	.	8d/L]	.	>
.	.	.	8c#X/J	.	.
(8A/L	4BB-\	.	4.d/	.	.
8G/J	.	.	.	.	.
4E/)	4AA\	.	.	.	.
.	.	.	8c#/)	.	]]
*v	*v	*	*	*	*
=75	=75	=75	=75	=75
2.ryy	.	[2.A/	.	.
=76	=76	=76	=76	=76
2.ryy	.	(8A/L]	.	p
!	!	!LO:TX:b:i:t=espress.	!	!
.	.	8B-/	.	.
.	.	8c#X/	.	.
.	.	8d/	1	.
.	.	8f/	2	.
.	.	8g#X/J	3	.
=77	=77	=77	=77	=77
!	!	!LO:TX:b:i:t=poco stretto	!	!
2.ryy	.	8b-\L	4	<
.	.	8cc#X\	5	.
.	.	8dd\	.	.
.	.	8ff\	.	.
.	.	8gg#X\	.	.
.	.	8bb-\J	.	[[
=78	=78	=78	=78	=78
*	*	*8va	*	*
2.ryy	.	8ccc#X\L	5	>
.	.	8ddd\	1	.
.	.	8fff\	.	.
!	!	!LO:TX:b:i:t=rit.	!	!
.	.	8ggg#X\	.	.
.	.	8bbb-\	.	.
.	.	8cccc#X\J)	.	]]
*	*	*X8va	*	*
=79	=79	=79	=79	=79
*ped	*	*	*	*
!	!	!	!	!LO:DY:rj
2.DD\ 2.AA	.	2.F</ 2.d	.	pp
*clefG2	*	*	*	*
=80	=80	=80	=80	=80
*	*	*8va	*	*
2.f/ 2.a 2.dd 2.ff	.	2.ddd\ 2.dddd	.	.
*Xped	*	*X8va	*	*
==	==	==	==	==
*-	*-	*-	*-	*-
!!!system-decoration: {(s1,s2)}
!!!RDF**kern: < = below
!!!RDF**kern: > = above
!!!RDF**kern: N = linked
!!!ENC: Filip Voros
!!!END: 2023-10-20
!!!EED: Marta Chmielewska
!!!EEV: 2023-11-16
